public/img/footer/logo.svg

<svg width="140" height="33" viewBox="0 0 140 33" fill="none" xmlns="http://www.w3.org/2000/svg">
<path fill-rule="evenodd" clip-rule="evenodd" d="M16.2325 22.7534C12.9353 22.7534 10.198 20.0161 10.198 16.7189C10.198 13.4216 12.8731 10.6843 16.2325 10.6843C19.5297 10.6843 22.2671 13.3594 22.2671 16.7189C22.2671 20.0161 19.5297 22.7534 16.2325 22.7534ZM16.2325 14.0438C14.7394 14.0438 13.5574 15.2258 13.5574 16.7189C13.5574 18.2119 14.7394 19.394 16.2325 19.394C17.7256 19.394 18.9076 18.2119 18.9076 16.7189C18.9076 15.2258 17.7256 14.0438 16.2325 14.0438Z" fill="#61B2AA"/>
<path fill-rule="evenodd" clip-rule="evenodd" d="M0.244141 16.4078C0.244141 29.0368 3.29251 32.0851 15.9215 32.0851C28.5504 32.0851 31.5988 29.0368 31.5988 16.4078C31.5988 3.77884 28.5504 0.730469 15.9215 0.730469C3.29251 0.730469 0.244141 3.77884 0.244141 16.4078ZM3.60357 16.4078C3.60357 5.7074 5.22107 4.0899 15.9215 4.0899C26.6219 4.0899 28.2394 5.7074 28.2394 16.4078C28.2394 27.1082 26.6219 28.7257 15.9215 28.7257C5.22107 28.7257 3.60357 27.1082 3.60357 16.4078Z" fill="#61B2AA"/>
<path fill-rule="evenodd" clip-rule="evenodd" d="M41.9259 23.5004V5.95673H44.601V12.0535C45.1609 11.4936 45.8453 11.1203 46.5296 10.9337C47.2761 10.6848 48.0227 10.6226 48.7692 10.6226C49.7646 10.6226 50.6356 10.8092 51.4443 11.1203C52.2531 11.4314 52.8752 11.9291 53.4351 12.5512C53.995 13.1733 54.4305 13.8576 54.6793 14.6664C54.9904 15.4751 55.1148 16.3461 55.1148 17.217C55.1148 18.1502 54.9904 19.0212 54.6793 19.8299C54.3683 20.6387 53.995 21.323 53.4351 21.9451C52.8752 22.5672 52.1909 23.0027 51.4443 23.376C50.6356 23.6871 49.7646 23.8737 48.7692 23.8737C47.9605 23.8737 47.2139 23.7493 46.4674 23.5004C45.7209 23.2516 45.0987 22.8783 44.4766 22.3184V23.5004H41.9259ZM52.4397 17.2793C52.4397 16.6571 52.3775 16.0972 52.1909 15.5995C52.0042 15.1018 51.7554 14.6664 51.4443 14.2931C51.1333 13.9198 50.6978 13.6088 50.2623 13.4221C49.7646 13.1733 49.2669 13.1111 48.5826 13.1111C47.9605 13.1111 47.4006 13.2355 46.9029 13.4221C46.4052 13.6088 45.9697 13.9198 45.6586 14.2931C45.3476 14.6664 45.0365 15.1018 44.8499 15.5995C44.6632 16.0972 44.601 16.6571 44.601 17.217C44.601 17.7769 44.6632 18.3369 44.8499 18.8968C45.0365 19.3945 45.2854 19.8299 45.6586 20.2032C46.0319 20.5765 46.4052 20.8875 46.9029 21.0742C47.4006 21.2608 47.9605 21.3852 48.5826 21.3852C49.2047 21.3852 49.7646 21.2608 50.2623 21.0742C50.76 20.8253 51.1333 20.5765 51.4443 20.2032C51.7554 19.8299 52.0042 19.3945 52.1909 18.8968C52.3775 18.3991 52.4397 17.8392 52.4397 17.2793Z" fill="#61B2AA"/>
<path d="M67.7438 22.3806C67.1839 22.8783 66.624 23.1894 65.9396 23.4382C65.2553 23.687 64.571 23.7493 63.8244 23.7493C63.0157 23.7493 62.2692 23.6248 61.5848 23.376C60.9005 23.1271 60.3406 22.7539 59.8429 22.3184C59.3452 21.8207 59.0341 21.323 58.7231 20.6387C58.4742 19.9544 58.3498 19.27 58.3498 18.4613V10.9337H61.0249V18.3991C61.0249 20.3276 62.0203 21.323 64.0111 21.323C64.6332 21.323 65.1931 21.1986 65.6286 21.012C66.064 20.8253 66.4373 20.5143 66.7484 20.141C67.0594 19.7677 67.2461 19.3322 67.4327 18.8345C67.5571 18.3369 67.6816 17.7769 67.6816 17.217V10.9337H70.3567V23.5626H67.7438V22.3806Z" fill="#61B2AA"/>
<path d="M85.4741 12.8L77.7598 21.0742H85.6607V23.5004H73.7783V21.5719L81.4925 13.2977H73.9649V10.8715H85.4741V12.8Z" fill="#61B2AA"/>
<path d="M99.9072 12.8L92.1929 21.0742H100.094V23.5004H88.2114V21.5719L95.9256 13.2977H88.398V10.8715H99.9072V12.8Z" fill="#61B2AA"/>
<path d="M121.059 13.3599H116.829V23.5626H114.029V13.3599H110.048V10.9337H114.029C114.029 9.81385 114.154 8.94289 114.402 8.32078C114.651 7.63645 115.025 7.13875 115.522 6.76549C116.02 6.39221 116.642 6.20558 117.389 6.08116C118.135 5.95673 119.006 5.89452 120.002 5.89452H121.184V8.38299H119.442C118.82 8.38299 118.384 8.38299 118.011 8.4452C117.7 8.50741 117.389 8.63183 117.202 8.75626C117.015 8.94289 116.953 9.19174 116.891 9.5028C116.829 9.81385 116.829 10.3115 116.829 10.8715H121.059V13.3599Z" fill="#61B2AA"/>
<path d="M125.041 9.87607C124.481 9.87607 124.045 9.68943 123.672 9.37837C123.299 9.0051 123.112 8.56962 123.112 8.00972C123.112 7.44981 123.299 7.01433 123.672 6.70327C124.045 6.33 124.543 6.14337 125.041 6.14337C125.601 6.14337 126.036 6.33 126.409 6.70327C126.783 7.07654 126.969 7.51202 126.969 8.00972C126.969 8.56962 126.783 9.0051 126.409 9.37837C126.036 9.75164 125.538 9.87607 125.041 9.87607Z" fill="#61B2AA"/>
<path d="M123.672 10.9337H126.347V23.5626H123.672V10.9337Z" fill="#61B2AA"/>
<path d="M139.474 13.3599H135.492V19.3322C135.492 19.5811 135.492 19.7677 135.554 20.0166C135.617 20.3898 135.679 20.6387 135.741 20.7009C135.866 20.8253 136.052 20.8875 136.425 20.9497C136.923 21.012 137.421 21.012 137.981 21.012H139.474V23.5004H137.918C136.985 23.5004 136.177 23.4382 135.554 23.3138C134.87 23.1894 134.372 22.9405 133.937 22.6295C133.501 22.3184 133.19 21.8207 133.004 21.1986C132.817 20.5765 132.755 19.7677 132.755 18.8345V13.2977H129.022V10.8715H132.755V6.8277H135.492V10.9959H139.474V13.3599Z" fill="#61B2AA"/>
</svg>

<svg width="140" height="33" fill="none" xmlns="http://www.w3.org/2000/svg"><path fill-rule="evenodd" clip-rule="evenodd" d="M16.233 22.753c-3.298 0-6.035-2.737-6.035-6.034 0-3.297 2.675-6.035 6.035-6.035 3.297 0 6.034 2.675 6.034 6.035 0 3.297-2.737 6.034-6.034 6.034zm0-8.71a2.655 2.655 0 0 0-2.676 2.676 2.655 2.655 0 0 0 2.676 2.675 2.655 2.655 0 0 0 2.675-2.675 2.655 2.655 0 0 0-2.675-2.675z" fill="#61B2AA"/><path fill-rule="evenodd" clip-rule="evenodd" d="M.244 16.408c0 12.629 3.049 15.677 15.677 15.677 12.63 0 15.678-3.048 15.678-15.677C31.599 3.778 28.55.73 15.92.73 3.293.73.245 3.78.245 16.408zm3.36 0c0-10.7 1.617-12.318 12.318-12.318 10.7 0 12.317 1.617 12.317 12.318 0 10.7-1.617 12.318-12.318 12.318-10.7 0-12.317-1.618-12.317-12.318zM41.926 23.5V5.957H44.6v6.096a4.372 4.372 0 0 1 1.929-1.12c.746-.248 1.493-.31 2.24-.31.995 0 1.866.186 2.674.497.81.311 1.431.81 1.991 1.431.56.622.995 1.307 1.244 2.115.311.81.436 1.68.436 2.551 0 .933-.125 1.804-.436 2.613-.31.809-.684 1.493-1.244 2.115-.56.622-1.244 1.058-1.99 1.431a7.314 7.314 0 0 1-2.676.498 7.138 7.138 0 0 1-2.302-.374c-.746-.248-1.368-.622-1.99-1.182V23.5h-2.551zm10.514-6.22c0-.623-.063-1.183-.25-1.68a4.476 4.476 0 0 0-.746-1.307 3.249 3.249 0 0 0-1.182-.87c-.497-.25-.995-.312-1.68-.312a4.75 4.75 0 0 0-1.68.311 3.006 3.006 0 0 0-1.243.871c-.311.373-.623.809-.81 1.307-.186.497-.248 1.057-.248 1.617s.062 1.12.249 1.68c.186.498.435.933.809 1.306.373.373.746.684 1.244.871a4.75 4.75 0 0 0 1.68.311 4.75 4.75 0 0 0 1.68-.31c.497-.25.87-.498 1.181-.872.311-.373.56-.808.747-1.306.186-.498.249-1.058.249-1.618z" fill="#61B2AA"/><path d="M67.744 22.38c-.56.498-1.12.81-1.804 1.058-.685.249-1.369.311-2.116.311a6.509 6.509 0 0 1-2.24-.373c-.684-.249-1.243-.622-1.741-1.058-.498-.497-.809-.995-1.12-1.68a6.153 6.153 0 0 1-.373-2.177v-7.527h2.675v7.465c0 1.929.995 2.924 2.986 2.924.622 0 1.182-.124 1.618-.311.435-.187.808-.498 1.12-.871.31-.373.497-.809.684-1.306.124-.498.249-1.058.249-1.618v-6.283h2.675v12.629h-2.613V22.38zm17.73-9.58l-7.714 8.274h7.9V23.5H73.779v-1.928l7.715-8.274h-7.528V10.87h11.51V12.8zm14.433 0l-7.714 8.274h7.901V23.5H88.211v-1.928l7.715-8.274h-7.528V10.87h11.51V12.8zm21.152.56h-4.23v10.203h-2.8V13.36h-3.981v-2.426h3.981c0-1.12.125-1.991.373-2.613.249-.685.623-1.182 1.12-1.556.498-.373 1.12-.56 1.867-.684.746-.124 1.617-.186 2.613-.186h1.182v2.488h-1.742c-.622 0-1.058 0-1.431.062a2.445 2.445 0 0 0-.809.311c-.187.187-.249.436-.311.747-.062.31-.062.809-.062 1.368h4.23v2.489zm3.982-3.484a2.05 2.05 0 0 1-1.369-.498 1.83 1.83 0 0 1-.56-1.368c0-.56.187-.996.56-1.307a1.93 1.93 0 0 1 1.369-.56c.56 0 .995.187 1.368.56.374.374.56.809.56 1.307 0 .56-.186.995-.56 1.368-.373.374-.871.498-1.368.498zm-1.369 1.058h2.675v12.629h-2.675v-12.63zm15.802 2.426h-3.982v5.972c0 .25 0 .436.062.685.063.373.125.622.187.684.125.124.311.186.684.249.498.062.996.062 1.556.062h1.493V23.5h-1.556c-.933 0-1.741-.062-2.364-.186a3.856 3.856 0 0 1-1.617-.684c-.436-.312-.747-.81-.933-1.431-.187-.623-.249-1.431-.249-2.365v-5.536h-3.733V10.87h3.733V6.828h2.737v4.168h3.982v2.364z" fill="#61B2AA"/></svg>
